outline/svg/table_chart.svg

<svg xmlns="http://www.w3.org/2000/svg" width="24" height="24"><path fill="none" d="M0 0h24v24H0V0z"/><g fill="currentColor"><path d="M20 3H5c-1.1 0-2 .9-2 2v14c0 1.1.9 2 2 2h15c1.1 0 2-.9 2-2V5c0-1.1-.9-2-2-2zm0 2v3H5V5h15zm-5 14h-5v-9h5v9zM5 10h3v9H5v-9zm12 9v-9h3v9h-3z"/></g></svg>

<?xml version="1.0" encoding="utf-8"?>
<!-- Generator: Adobe Illustrator 19.1.0, SVG Export Plug-In . SVG Version: 6.00 Build 0)  -->
<svg version="1.1" xmlns="http://www.w3.org/2000/svg" xmlns:xlink="http://www.w3.org/1999/xlink" x="0px" y="0px" width="24px"
	 height="24px" viewBox="0 0 24 24" enable-background="new 0 0 24 24" xml:space="preserve">
<g id="Bounding_Boxes">
	<g id="ui_x5F_spec_x5F_header_copy_3">
	</g>
	<path fill="none" d="M0,0h24v24H0V0z"/>
</g>
<g id="Outline" fill="currentColor">
	<g id="ui_x5F_spec_x5F_header">
	</g>
	<path d="M20,3H5C3.9,3,3,3.9,3,5v14c0,1.1,0.9,2,2,2h15c1.1,0,2-0.9,2-2V5C22,3.9,21.1,3,20,3z M20,5v3H5V5H20z M15,19h-5v-9h5V19z
		 M5,10h3v9H5V10z M17,19v-9h3v9H17z"/>
</g>
</svg>
